public/icons/platform-img1.svg

<svg width="76" height="76" viewBox="0 0 76 76" fill="none" xmlns="http://www.w3.org/2000/svg">
<path d="M74.9673 0.175723C74.2997 -0.145558 73.5021 -0.0187588 72.9678 0.494498C68.8912 4.4067 61.8669 10.1904 51.5537 15.5268C51.1027 15.7604 50.773 16.1757 50.6485 16.668C49.8071 19.9911 48.1558 23.6182 45.7412 27.4485L44.7583 29.0073L46.5907 21.0264C46.7401 20.3757 46.5118 19.6962 46 19.2675C45.488 18.8389 44.7788 18.7336 44.1646 18.9953L43.9526 19.0847C23.1441 27.844 16.9946 41.4115 15.181 48.7187C14.5516 51.2549 14.2376 53.7662 14.2482 56.1842C14.2524 57.1171 14.3051 58.0062 14.4049 58.8382L0.536333 72.9811C-0.134431 73.6648 -0.141742 74.7577 0.520039 75.4507C0.868268 75.8152 1.33557 75.9998 1.80454 75.9998C2.22651 75.9998 2.64952 75.8501 2.98772 75.5478L41.0961 41.32C41.2833 41.3323 19.3973 64.258 19.5956 64.258C22.5661 64.258 26.6694 62.8887 31.4617 60.2994C37.9239 56.8073 45.146 51.4485 52.3469 44.8025C52.9384 44.2569 53.0886 43.381 52.7131 42.6691C52.3375 41.9574 51.5303 41.5868 50.7453 41.7677L46.2826 42.7921L47.842 41.809C52.1944 39.065 56.2632 37.3155 59.9352 36.6082C60.3323 36.5315 60.6918 36.3216 60.9536 36.013C69.591 25.8294 73.2477 15.7671 74.7942 9.11917C75.3561 6.70288 75.7507 4.28658 75.9654 1.93734C76.0327 1.19952 75.6352 0.497005 74.9673 0.175723Z" fill="#212121"/>
</svg>

<svg viewBox="0 0 76 76" fill="none" xmlns="http://www.w3.org/2000/svg"><path d="M74.967.176a1.775 1.775 0 00-2 .318c-4.076 3.913-11.1 9.696-21.413 15.033-.451.233-.781.649-.906 1.141-.84 3.323-2.492 6.95-4.907 10.78l-.983 1.56 1.833-7.982a1.776 1.776 0 00-2.426-2.03l-.212.089C23.144 27.844 16.995 41.41 15.18 48.719c-.63 2.536-.943 5.047-.933 7.465.004.933.057 1.822.157 2.654L.536 72.981a1.776 1.776 0 002.452 2.567L41.096 41.32c.187.012-21.699 22.938-21.5 22.938 2.97 0 7.073-1.37 11.866-3.959 6.462-3.492 13.684-8.85 20.885-15.496a1.776 1.776 0 00-1.602-3.035l-4.462 1.024 1.559-.983c4.352-2.744 8.421-4.493 12.093-5.2a1.778 1.778 0 001.019-.596c8.637-10.184 12.294-20.246 13.84-26.894a53.236 53.236 0 001.171-7.182 1.776 1.776 0 00-.998-1.761z" fill="#212121"/></svg>
